X: 35345
T: Rosewood
R: jig
M: 6/8
K: Gmajor
|:~g3 def|gdc BAG|g2e Bcd|ecA A2f|
gfe def|gdc BAG|c2B Adc|1 BGF G2f:|2 BGF G2F||
|:GBd GBd|ecB c2B|A^ce A^ce|fd^c d2f|
gfe dcB|edc BAG|c2B Adc|1 BGF G2F:|2 BGF G2f||

